X:5675
T:Gan ainm
R:Reel
S:
H:
N:
D:Nomos tape of dubious origin
Z:Adrian Scahill
M:4/4
L:1/8
K:G
cAAG ABcd|e2ab agef|g2dg (3efg dg|^cdgd (3efg dB|\
cAAG ABcd|e2ab agef|g2dg efge|dBGB A4:||\
eaag ageg|agbg agef|g2dg (3efg dg|^cdgd (3efg dg|\
eaag ageg|agbg agef|g2dg efge|dBGB A4:||
